X: 4
T: Rural Felicity
T: Cathleen / Kathleen Hehir's
T: Hehir's
N: just these two parts, 32 bars, AABB
M: 12/8
L: 1/8
R: slide
K: D Major
|: A |\
dcd e2 d c2 E EFG | B2 B- BAG F2 D DFA |
dcd e2 d c2 E- EFG | ABA GFE D3 DF :|
|: A |\
F2 A d3 c2 B G3 | A2 A G2 E B2 A F2 E |
DF/G/A ded c2 B G2 F | EE/F/G ABc d3 d2 :|
